X:1     %Music
T:Donkey Riding
B:Singing Together, Summer 1971, BBC Publications
F:http://www.folkinfo.org/songs
M:2/4     %Meter
L:1/16     %
K:F
F3G A2A2 |B2G2 A4 |A2G2 G2F2 |A2G2 G4 |
w:Were you ev-er in Que-bec, Stow-ing tim-ber on the deck, 
F2FG A2AA |B2G2 A4 |A2G2 c2c2 |F4 F4 |
w:Where there's a king with a gol-den crown, Rid-ing on a don-key? 
d4 c3c |B2c2 A4 |A2G2 G2F2 |A2G2 G2F2 |
w:Hey! ho! A-way we go, Don-key rid-ing, don-key ri-ding, 
(d2f2) c3c |B2c2 A4 |A2G2 c2c2 |F4 F4 |]
w:Hey!_ ho! A-way we go, ri-ding on a don-key! 
